/* XPM */
static char *gun_nofire[] = {
/* columns rows colors chars-per-pixel */
"32 32 110 2 ",
"   c white",
".  c black",
"X  c #191D28",
"o  c #1B1F2B",
"O  c #1C1F28",
"+  c #1C202A",
"@  c #1E212B",
"#  c #18202F",
"$  c #19202F",
"%  c #1E222D",
"&  c #1F232F",
"*  c #1B2132",
"=  c #1C2332",
"-  c #1E2533",
";  c #1F2633",
":  c #20212A",
">  c #21222A",
",  c #20222B",
"<  c #22232B",
"1  c #23252E",
"2  c #24252D",
"3  c #25262D",
"4  c #25262E",
"5  c #26272E",
"6  c #27272E",
"7  c #2B272A",
"8  c #28272C",
"9  c #28272D",
"0  c #29282D",
"q  c #2B282C",
"w  c #2B282D",
"e  c #2A292D",
"r  c #29282E",
"t  c #28282F",
"y  c #2A292E",
"u  c #2B292E",
"i  c #2C292E",
"p  c #2D2A2E",
"a  c #2E2B2E",
"s  c #2E2A2F",
"d  c #312B2C",
"f  c #332C2D",
"g  c #302C2E",
"h  c #312C2E",
"j  c #332D2E",
"k  c #322D2F",
"l  c #332E2F",
"z  c #352E2D",
"x  c #362E2D",
"c  c #342E2F",
"v  c #352E2F",
"b  c #352F2F",
"n  c #362E2E",
"m  c #362F2E",
"M  c #372F2E",
"N  c #362F2F",
"B  c #36302F",
"V  c #39302D",
"C  c #38302E",
"Z  c #39302E",
"A  c #38302F",
"S  c #3A312E",
"D  c #3B312E",
"F  c #3A312F",
"G  c #3C312E",
"H  c #3F332E",
"J  c #3F332F",
"K  c #252730",
"L  c #222833",
"P  c #272830",
"I  c #272932",
"U  c #272A33",
"Y  c #242834",
"T  c #2A2930",
"R  c #2A2A31",
"E  c #282A32",
"W  c #3A3230",
"Q  c #40342E",
"!  c #41342E",
"~  c #41352F",
"^  c #42352E",
"/  c #42352F",
"(  c #43362F",
")  c #46362D",
"_  c #45372F",
"`  c #46362E",
"'  c #46372F",
"]  c #47372F",
"[  c #48372F",
"{  c #48382F",
"}  c #4A392F",
"|  c #4D3A2F",
" . c #4E3B2F",
".. c #453730",
"X. c #513C30",
"o. c #533D30",
"O. c #543D30",
"+. c #543E30",
"@. c #553E30",
"#. c #563F31",
"$. c #5B4232",
"%. c #5E4331",
"&. c #5E4332",
"*. c #5F4432",
"=. c #604432",
"-. c #1A3240",
";. c #183946",
":. c #222B40",
">. c #2B3751",
",. c #186573",
/* pixels */
"          . .                                                   ",
"          . .                                                   ",
"      . . >.>..                                                 ",
"    . :.:.:.:.. . .                                             ",
"    . $ $ $ :.:.>.>.. .         . . . . .                       ",
"    . . $ $ $ $ $ :.:.. . . . . :.>.>.>.>..                     ",
"    . >.. . $ $ $ $ :.>.>.. . $ $ $ . . :..                     ",
"    . :.:.>.. . $ $ $ $ :.:.. . $ . -.,.. .                     ",
"    . $ $ :.:.>.. . $ $ $ >.>.. . $ . ;.. $ .                   ",
"    . $ $ $ . . . $ . . $ $ :.:.. . . . . . . .                 ",
"      . . $ . :.:.. . $ . . $ >.>.. $ $ $ $ $ .                 ",
"      . >.. $ $ :.:.:.. $ $ . $ $ . $ $ $ $ $ .                 ",
"      . >.. $ $ $ :.:.. $ $ . $ $ . $ $ $ $ $ .                 ",
"      . :.:.. $ $ $ . . $ $ . $ $ . $ . . . $ .                 ",
"        . . . $ $ $ . . $ $ $ $ $ . $ $ . $ $ .                 ",
"            . $ $ . $ $ . $ $ $ $ . $ $ $ $ $ .                 ",
"              . . . $ $ . . $ $ $ $ . $ $ $ . .                 ",
"                    . . $ $ . . $ $ $ . . . $ .                 ",
"                  . , X . $ $ $ . $ $ $ $ $ . .                 ",
"                . 4 8 . X . . $ = . . . . . . . .               ",
"                . . . w d 4 . . . . X X . * - - .               ",
"                  . x $.=.+.7 s s Y . . U T U L .               ",
"                  . ` X.%.| +.%.X...W B x x g U @ .             ",
"                  . T x ` [ *.=.+.| { ! ! C x 8 X .             ",
"                  . . % g G | +.| { ` G G x s w . X .           ",
"                  . . . , C G ! ! ` ! x . . . . @ X .           ",
"                  . x . . w x x C C . . w s 8 4 1 @ .           ",
"                  . . , X . g g g . . x . . . . . 4 O .         ",
"                  . w . X . $ w K U C . C G ! G C . w @ .       ",
"                  . X , . . $ $ $ T w . ` G C g w 4 1 % .       ",
"                  . . X X . . . . . T x x . . . . . . . .       ",
"                    . . . . . . . . . . . . . . . . . . .       "
};
