/* XPM */
static char *gun_fire[] = {
/* columns rows colors chars-per-pixel */
"32 32 109 2 ",
"   c white",
".  c black",
"X  c #191D28",
"o  c #1B1F2B",
"O  c #1C1F28",
"+  c #1C202A",
"@  c #1E212B",
"#  c #18202F",
"$  c #19202F",
"%  c #1E222D",
"&  c #1F232F",
"*  c #1B2132",
"=  c #1C2332",
"-  c #1E2533",
";  c #1F2633",
":  c #20212A",
">  c #21222A",
",  c #20222B",
"<  c #23252E",
"1  c #24252D",
"2  c #25262D",
"3  c #25262E",
"4  c #27272E",
"5  c #2B272A",
"6  c #28272D",
"7  c #29282D",
"8  c #2B282C",
"9  c #2B282D",
"0  c #2A292D",
"q  c #29282E",
"w  c #28282F",
"e  c #2A292E",
"r  c #2B292E",
"t  c #2C292E",
"y  c #2D2A2E",
"u  c #2E2B2E",
"i  c #2E2A2F",
"p  c #312B2C",
"a  c #332C2D",
"s  c #302C2E",
"d  c #312C2E",
"f  c #332D2E",
"g  c #322D2F",
"h  c #332E2F",
"j  c #352E2D",
"k  c #362E2D",
"l  c #342E2F",
"z  c #352E2F",
"x  c #352F2F",
"c  c #362E2E",
"v  c #362F2E",
"b  c #372F2E",
"n  c #362F2F",
"m  c #36302F",
"M  c #39302D",
"N  c #38302E",
"B  c #39302E",
"V  c #38302F",
"C  c #3A312E",
"Z  c #3B312E",
"A  c #3A312F",
"S  c #3C312E",
"D  c #3F332E",
"F  c #3F332F",
"G  c #252730",
"H  c #222833",
"J  c #272830",
"K  c #272932",
"L  c #272A33",
"P  c #242834",
"I  c #2A2930",
"U  c #2A2A31",
"Y  c #282A32",
"T  c #3A3230",
"R  c #40342E",
"E  c #41342E",
"W  c #41352F",
"Q  c #42352E",
"!  c #42352F",
"~  c #43362F",
"^  c #46362D",
"/  c #45372F",
"(  c #46362E",
")  c #46372F",
"_  c #47372F",
"`  c #48372F",
"'  c #48382F",
"]  c #4A392F",
"[  c #4D3A2F",
"{  c #4E3B2F",
"}  c #453730",
"|  c #513C30",
" . c #533D30",
".. c #543D30",
"X. c #543E30",
"o. c #553E30",
"O. c #563F31",
"+. c #5B4232",
"@. c #5E4331",
"#. c #5E4332",
"$. c #5F4432",
"%. c #604432",
"&. c #1A3240",
"*. c #183946",
"=. c #222B40",
"-. c #2B3751",
";. c #186573",
":. c #C23204",
">. c #FF3E00",
/* pixels */
"          . .                                                   ",
">.      >.. .                                                   ",
"  >.:.. . -.-..                                                 ",
"  :.. =.=.=.=.. . .                                             ",
"  >.. $ $ $ =.=.-.-.. .         . . . . .                       ",
">.  . . $ $ $ $ $ =.=.. . . . . =.-.-.-.-..                     ",
"    . -.. . $ $ $ $ =.-.-.. . $ $ $ . . =..                     ",
"    . =.=.-.. . $ $ $ $ =.=.. . $ . &.;.. .                     ",
"    . $ $ =.=.-.. . $ $ $ -.-.. . $ . *.. $ .                   ",
"    . $ $ $ . . . $ . . $ $ =.=.. . . . . . . .                 ",
"      . . $ . =.=.. . $ . . $ -.-.. $ $ $ $ $ .                 ",
"      . -.. $ $ =.=.=.. $ $ . $ $ . $ $ $ $ $ .                 ",
"      . -.. $ $ $ =.=.. $ $ . $ $ . $ $ $ $ $ .                 ",
"      . =.=.. $ $ $ . . $ $ . $ $ . $ . . . $ .                 ",
"        . . . $ $ $ . . $ $ $ $ $ . $ $ . $ $ .                 ",
"            . $ $ . $ $ . $ $ $ $ . $ $ $ $ $ .                 ",
"              . . . $ $ . . $ $ $ $ . $ $ $ . .                 ",
"                      . $ $ . . $ $ $ . . . $ .                 ",
"                    . . . $ $ $ . $ $ $ $ $ . .                 ",
"                  . . . X . . $ = . . . . . . . .               ",
"                  . . 9 p 3 . . . . X X . * - - .               ",
"                  . k +.%.X.5 i i P . . L I L H .               ",
"                  . ( | @.[ X.@.| } T m k k s L @ .             ",
"                  . I k ( ` $.%.X.[ ' E E N k 6 X .             ",
"                  . . % s S [ X.[ ' ( S S k i 9 . X .           ",
"                  . . . , N S E E ( E k . . . . @ X .           ",
"                  . k . . 9 k k N N . . 9 i 6 3 < @ .           ",
"                  . . , X . s s s . . k . . . . . 3 O .         ",
"                  . 9 . X . $ 9 G L N . N S E S N . 9 @ .       ",
"                  . X , . . $ $ $ I 9 . ( S N s 9 3 < % .       ",
"                  . . X X . . . . . I k k . . . . . . . .       ",
"                    . . . . . . . . . . . . . . . . . . .       "
};
